X:1
T:Title
%%score { ( 1 3 ) | 2 }
L:1/8
M:6/8
K:G
V:1 treble nm="Grand Piano"
V:3 treble 
V:2 bass 
V:1
 z3 z[Q:1/4=100] D>D | G>GG GAB | d2 e d2 B | d6 | A6 | [FA]>[FA][FA] [FA][FB][Fc] | %6
 [Fe]2 [Fe] [Fe]2 e | d6 | B6 | G>GG GAB | d2 e d2 B | d6 | e6 | d>dd dBG | %14
 [Ec]>[Ec][Ec] [Ec][EB][EA] | G3 F3 |[M:5/8] G-G- G3 |[M:1/8] B |[M:3/4] d4 z2 | c6 | F>F FF ed | %21
 B6 | G>G GG AB |[M:7/8] [Ec]2 [Ec] [Ge]3 [Ge] |[M:15/16] d3/2-d3/2- d3 z3/2 |[M:3/4] [B,G]4 z2 |] %26
V:2
 z3 z [G,B,]>[G,B,] | [G,B,D]>[G,B,D][G,B,D][K:treble] [G,B,D][G,CD][G,DG] | %2
 [G,B,G]2 [G,CG] .[G,B,G]3 | z2[K:bass] [G,B,] .[G,B,]3 | z2 [D,D] [D,D]2 [D,F,] | %5
 [D,D]>[D,D][D,D] [D,D][D,D][D,D] | [D,C]2 [D,C] .[D,C]3 | z2 [D,D] .[D,D]3 | %8
 z2 [G,D] [G,D]2 [G,B,] | [G,B,D]>[G,B,D][G,B,D] [G,B,D][G,B,D][G,D] | [G,B,G]2 [G,CG] .[G,B,G]3 | %11
 z2 [G,B,] [G,B,]2 =F | E2[K:bass] [C,C] [C,C]2 [C,C] | %13
 [G,B,G]>[G,B,G][G,B,G] [G,B,G][G,DG][K:bass][G,B,D] | [C,G,]>[C,G,][C,G,] [C,G,][C,G,][C,C] | %15
 [D,B,D]3 [D,A,D]3 |[M:5/8][K:treble] [G,B,D]-[G,B,D]- [G,B,D]3 |[M:1/8] [G,DG] | %18
[M:3/4] [G,B,G]>[K:bass][G,B,] [G,B,][G,B,] z2 | [D,A,]>[D,A,] [D,G,] .[D,F,]3 | %20
 [D,D]>[D,D] [D,D][D,D] z2 | [G,DG]>[G,D] [G,D] [G,B,]2 [G,B,]/[K:bass][G,B,]/ | %22
 [G,B,D]>[G,B,D] [G,B,D][G,B,D][K:treble] [G,CD][G,DG] |[M:7/8][K:bass] [C,C]2 [C,C] [C,C]3 [C,C] | %24
[M:15/16] [D,A,]>[D,A,][D,B,] [D,C]3 [D,A,C]3/2 |[M:3/4] [A,,G,]4 z2 |] %26
V:3
 x6 | x6 | x6 | z2 G G2 B | z2 F F2 D | x6 | x6 | z2 F F2 c | z2 G G2 D | x6 | x6 | z2 =F F2 G | %12
 z2 G G2 [Ge] | x6 | x6 | x6 |[M:5/8] x5 |[M:1/8] x |[M:3/4] z z/ G/ GG cB | F>F E D2 D | A4 z2 | %21
 z z/ F/ E D2 D/D/ | x6 |[M:7/8] x7 |[M:15/16] F>FG A3 F3/2 |[M:3/4] x6 |] %26

